assets/Pencil/Flat/pencil_flat.svg

<svg width="32" height="32" viewBox="0 0 32 32" fill="none" xmlns="http://www.w3.org/2000/svg">
<path d="M16.6352 7.58545L21.1451 10.1198L23.7063 14.6565L9.36953 28.9933L4.50768 26.4228L2.29846 21.9222L16.6352 7.58545Z" fill="#FF822D"/>
<path d="M1.3895 28.0652L1.97165 29.377L3.22663 29.9024L9.35704 28.9771L2.31475 21.9348L1.3895 28.0652Z" fill="#FFCE7C"/>
<path d="M1.06291 30.2289L1.38948 28.0652L3.22659 29.9023L1.06291 30.2289Z" fill="#402A32"/>
<path d="M22.2761 1.94443C23.0572 1.16338 24.3235 1.16338 25.1045 1.94443L29.3472 6.18707C30.1282 6.96812 30.1282 8.23445 29.3472 9.0155L25.8117 12.551L21.2845 10.2869L18.7406 5.47996L22.2761 1.94443Z" fill="#F92F60"/>
<path d="M18.7406 5.47998L25.8117 12.551L23.6903 14.6724L16.6193 7.6013L18.7406 5.47998Z" fill="#D3D3D3"/>
</svg>

<svg xmlns="http://www.w3.org/2000/svg" width="32" height="32" fill="none"><path fill="#FF822D" d="m16.635 7.585 4.51 2.535 2.561 4.537L9.37 28.992l-4.862-2.57-2.21-4.5L16.635 7.584Z"/><path fill="#FFCE7C" d="m1.39 28.065.582 1.312 1.255.525 6.13-.925-7.042-7.042-.925 6.13Z"/><path fill="#402A32" d="m1.063 30.229.326-2.164 1.838 1.837-2.164.327Z"/><path fill="#F92F60" d="M22.276 1.944a2 2 0 0 1 2.829 0l4.242 4.243a2 2 0 0 1 0 2.828l-3.535 3.536-4.527-2.264L18.74 5.48l3.535-3.536Z"/><path fill="#D3D3D3" d="m18.74 5.48 7.072 7.071-2.122 2.121-7.07-7.07 2.12-2.122Z"/></svg>
